X: 1
T: Give Me the Girl That's Ripe for Joy  v.2
P: piffero secondo a0293
C: John Benoit
F: http://ancients.sudburymuster.org/mus/med/pdf/shotgunC1.pdf
Z: 2019 John Chambers <jc:trillian.mit.edu>
M: 4/4
L: 1/8
K: G
F2 |\
G2G>G GBAG | F2F>F F2GA |\
BBAG (FE)DC | B,2B,>B, B,2 ::\
Bd |\
c2BB B2(3(DGB) |
A2GG G2Bd |\
c2B>B B2AG | (FE)DA, F,2F2 |\
G2G>G GdBG | F2F>F FGAB |\
(cB)AG (FE)DC | B,2B,>B, B,2 :|
